public/img/top/tex-8.svg

<svg fill="none" height="205" viewBox="0 0 187 205" width="187" xmlns="http://www.w3.org/2000/svg" xmlns:xlink="http://www.w3.org/1999/xlink"><filter id="a" color-interpolation-filters="sRGB" filterUnits="userSpaceOnUse" height="201.318" width="183.956" x="1.99392" y=".923717"><feFlood flood-opacity="0" result="BackgroundImageFix"/><feColorMatrix in="SourceAlpha" result="hardAlpha" type="matrix" values="0 0 0 0 0 0 0 0 0 0 0 0 0 0 0 0 0 0 127 0"/><feOffset dx="-13.6393" dy="15.9125"/><feGaussianBlur stdDeviation="12.5027"/><feColorMatrix type="matrix" values="0 0 0 0 0.316369 0 0 0 0 0.366988 0 0 0 0 0.353496 0 0 0 0.25741 0"/><feBlend in2="BackgroundImageFix" mode="normal" result="effect1_dropShadow_575_2151"/><feColorMatrix in="SourceAlpha" result="hardAlpha" type="matrix" values="0 0 0 0 0 0 0 0 0 0 0 0 0 0 0 0 0 0 127 0"/><feOffset dx="-6.81966" dy="6.81966"/><feGaussianBlur stdDeviation="5.68305"/><feColorMatrix type="matrix" values="0 0 0 0 0 0 0 0 0 0 0 0 0 0 0 0 0 0 0.144615 0"/><feBlend in2="effect1_dropShadow_575_2151" mode="normal" result="effect2_dropShadow_575_2151"/><feBlend in="SourceGraphic" in2="effect2_dropShadow_575_2151" mode="normal" result="shape"/></filter><path clip-rule="evenodd" d="m97.7909 27.228 66.9731 37.8269v75.6541l-66.9731 37.827-66.9725-37.827v-75.6541z" fill="#fff" fill-rule="evenodd" stroke="#00e599" stroke-width="1.47305"/><g filter="url(#a)"><path d="m107.611 10.0166 66.973 37.8269v75.6535l-66.973 37.827-66.9723-37.827v-75.6535z" fill="#000"/></g><path d="m107.611 10.0166 66.973 37.8269v75.6535l-66.973 37.827-66.9723-37.827v-75.6535z" fill="#f0f5f6"/><g stroke="#003" stroke-width="1.59253"><path clip-rule="evenodd" d="m108.897 79.0282 7.112 3.9348c.192.1061.31.3051.31.5207v7.8483c0 .2157-.118.4146-.31.5208l-7.112 3.9347c-.187.1034-.415.1034-.602 0l-7.111-3.9347c-.192-.1062-.311-.3051-.311-.5208v-7.8483c0-.2156.119-.4146.311-.5207l7.111-3.9348c.187-.1034.415-.1034.602 0z" fill="#00e599" fill-rule="evenodd"/><path d="m108.596 95.5964v-8.1902" stroke-linecap="round"/><path d="m100.77 83.4917 7.643 3.917" stroke-linecap="round"/><path d="m116.058 83.4917-7.644 3.917" stroke-linecap="round"/><path clip-rule="evenodd" d="m82.0516 79.0272 7.1116 3.9348c.1919.1061.3105.3051.3105.5207v7.8484c0 .2156-.1186.4145-.3105.5207l-7.1116 3.9348c-.1868.1033-.4153.1033-.6021 0l-7.1117-3.9348c-.1918-.1062-.3105-.3051-.3105-.5207v-7.8484c0-.2156.1187-.4146.3105-.5207l7.1117-3.9348c.1868-.1033.4153-.1033.6021 0z" fill="#fff" fill-rule="evenodd"/><path d="m81.75 95.5983v-8.1901" stroke-linecap="round"/><path d="m73.9238 83.4922 7.644 3.917" stroke-linecap="round"/><path d="m89.2123 83.4922-7.6439 3.917" stroke-linecap="round"/><path clip-rule="evenodd" d="m136.651 79.0282 7.112 3.9348c.192.1061.31.3051.31.5207v7.8483c0 .2157-.118.4146-.31.5208l-7.112 3.9347c-.187.1034-.415.1034-.602 0l-7.112-3.9347c-.191-.1062-.31-.3051-.31-.5208v-7.8483c0-.2156.119-.4146.31-.5207l7.112-3.9348c.187-.1034.415-.1034.602 0z" fill="#fff" fill-rule="evenodd"/><path d="m136.35 95.5964v-8.1902" stroke-linecap="round"/><path d="m128.523 83.4917 7.644 3.917" stroke-linecap="round"/><path d="m143.812 83.4917-7.644 3.917" stroke-linecap="round"/><path d="m128.342 88.2119h-11.83" stroke-linecap="square"/><path d="m99.8148 88.212-9.7972-.1412" stroke-linecap="square"/></g></svg>

<svg width="187" height="205" viewBox="0 0 187 205" fill="none" xmlns="http://www.w3.org/2000/svg">
<path fill-rule="evenodd" clip-rule="evenodd" d="M97.7909 27.228L164.764 65.0549V140.709L97.7909 178.536L30.8184 140.709V65.0549L97.7909 27.228Z" fill="white" stroke="#00E599" stroke-width="1.47305"/>
<g filter="url(#filter0_dd_575_2151)">
<path d="M107.611 10.0166L174.584 47.8435V123.497L107.611 161.324L40.6387 123.497V47.8435L107.611 10.0166Z" fill="black"/>
</g>
<path d="M107.611 10.0166L174.584 47.8435V123.497L107.611 161.324L40.6387 123.497V47.8435L107.611 10.0166Z" fill="#F0F5F6"/>
<path fill-rule="evenodd" clip-rule="evenodd" d="M108.897 79.0282L116.009 82.963C116.201 83.0691 116.319 83.2681 116.319 83.4837V91.332C116.319 91.5477 116.201 91.7466 116.009 91.8528L108.897 95.7875C108.71 95.8909 108.482 95.8909 108.295 95.7875L101.184 91.8528C100.992 91.7466 100.873 91.5477 100.873 91.332V83.4837C100.873 83.2681 100.992 83.0691 101.184 82.963L108.295 79.0282C108.482 78.9248 108.71 78.9248 108.897 79.0282Z" fill="#00E599" stroke="#000033" stroke-width="1.59253"/>
<path d="M108.596 95.5964V87.4062" stroke="#000033" stroke-width="1.59253" stroke-linecap="round"/>
<path d="M100.77 83.4917L108.413 87.4087" stroke="#000033" stroke-width="1.59253" stroke-linecap="round"/>
<path d="M116.058 83.4917L108.414 87.4087" stroke="#000033" stroke-width="1.59253" stroke-linecap="round"/>
<path fill-rule="evenodd" clip-rule="evenodd" d="M82.0516 79.0272L89.1632 82.962C89.3551 83.0681 89.4737 83.2671 89.4737 83.4827V91.3311C89.4737 91.5467 89.3551 91.7456 89.1632 91.8518L82.0516 95.7866C81.8648 95.8899 81.6363 95.8899 81.4495 95.7866L74.3378 91.8518C74.146 91.7456 74.0273 91.5467 74.0273 91.3311V83.4827C74.0273 83.2671 74.146 83.0681 74.3378 82.962L81.4495 79.0272C81.6363 78.9239 81.8648 78.9239 82.0516 79.0272Z" fill="white" stroke="#000033" stroke-width="1.59253"/>
<path d="M81.75 95.5983V87.4082" stroke="#000033" stroke-width="1.59253" stroke-linecap="round"/>
<path d="M73.9238 83.4922L81.5678 87.4092" stroke="#000033" stroke-width="1.59253" stroke-linecap="round"/>
<path d="M89.2123 83.4922L81.5684 87.4092" stroke="#000033" stroke-width="1.59253" stroke-linecap="round"/>
<path fill-rule="evenodd" clip-rule="evenodd" d="M136.651 79.0282L143.763 82.963C143.955 83.0691 144.073 83.2681 144.073 83.4837V91.332C144.073 91.5477 143.955 91.7466 143.763 91.8528L136.651 95.7875C136.464 95.8909 136.236 95.8909 136.049 95.7875L128.937 91.8528C128.746 91.7466 128.627 91.5477 128.627 91.332V83.4837C128.627 83.2681 128.746 83.0691 128.937 82.963L136.049 79.0282C136.236 78.9248 136.464 78.9248 136.651 79.0282Z" fill="white" stroke="#000033" stroke-width="1.59253"/>
<path d="M136.35 95.5964V87.4062" stroke="#000033" stroke-width="1.59253" stroke-linecap="round"/>
<path d="M128.523 83.4917L136.167 87.4087" stroke="#000033" stroke-width="1.59253" stroke-linecap="round"/>
<path d="M143.812 83.4917L136.168 87.4087" stroke="#000033" stroke-width="1.59253" stroke-linecap="round"/>
<path d="M128.342 88.2119H116.512" stroke="#000033" stroke-width="1.59253" stroke-linecap="square"/>
<path d="M99.8148 88.212L90.0176 88.0708" stroke="#000033" stroke-width="1.59253" stroke-linecap="square"/>
<defs>
<filter id="filter0_dd_575_2151" x="1.99392" y="0.923717" width="183.956" height="201.318" filterUnits="userSpaceOnUse" color-interpolation-filters="sRGB">
<feFlood flood-opacity="0" result="BackgroundImageFix"/>
<feColorMatrix in="SourceAlpha" type="matrix" values="0 0 0 0 0 0 0 0 0 0 0 0 0 0 0 0 0 0 127 0" result="hardAlpha"/>
<feOffset dx="-13.6393" dy="15.9125"/>
<feGaussianBlur stdDeviation="12.5027"/>
<feColorMatrix type="matrix" values="0 0 0 0 0.316369 0 0 0 0 0.366988 0 0 0 0 0.353496 0 0 0 0.25741 0"/>
<feBlend mode="normal" in2="BackgroundImageFix" result="effect1_dropShadow_575_2151"/>
<feColorMatrix in="SourceAlpha" type="matrix" values="0 0 0 0 0 0 0 0 0 0 0 0 0 0 0 0 0 0 127 0" result="hardAlpha"/>
<feOffset dx="-6.81966" dy="6.81966"/>
<feGaussianBlur stdDeviation="5.68305"/>
<feColorMatrix type="matrix" values="0 0 0 0 0 0 0 0 0 0 0 0 0 0 0 0 0 0 0.144615 0"/>
<feBlend mode="normal" in2="effect1_dropShadow_575_2151" result="effect2_dropShadow_575_2151"/>
<feBlend mode="normal" in="SourceGraphic" in2="effect2_dropShadow_575_2151" result="shape"/>
</filter>
</defs>
</svg>
